cc-by-sa/knowledge/modules/history_of_type/lessons/display_type/images/GFKhistoftype5.1.svg

<svg xmlns="http://www.w3.org/2000/svg" width="1920" height="1080" fill="none"><path fill="#3C4043" d="M140.786 365.149h254.689l4.897 101.876h-8.816c-12.081-35.265-26.122-59.264-42.121-71.999-15.674-12.734-39.183-19.101-70.53-19.101h-13.714v159.18h22.041c15.673 0 28.734-5.714 39.183-17.142 10.448-11.429 17.632-27.102 21.55-47.02h7.347V615.92h-8.326c-5.225-24.489-12.571-41.958-22.041-52.407-9.142-10.449-21.714-15.673-37.713-15.673h-22.041v149.385h60.734V708H140.786v-10.775h28.897v-321.3h-28.897v-10.776ZM516.016 592.9h14.204v-37.713c0-31.02-1.796-51.755-5.388-62.203-3.265-10.776-9.796-16.163-19.592-16.163-5.877 0-11.265 1.632-16.163 4.898-4.571 2.938-6.857 7.183-6.857 12.734 0 5.224.98 10.612 2.939 16.163h12.245c2.612 6.857 3.918 15.183 3.918 24.979 0 9.469-4.081 17.796-12.245 24.979-8.163 6.857-18.448 10.286-30.856 10.286-28.081 0-42.122-13.551-42.122-40.653 0-40.162 34.122-60.243 102.366-60.243 38.856 0 65.631 6.693 80.325 20.081 15.02 13.061 22.53 37.224 22.53 72.488v99.427c0 16.979 4.734 25.469 14.204 25.469 11.102 0 17.632-16.816 19.591-50.448l7.347.49c-1.306 28.734-6.694 48.489-16.163 59.264-9.469 10.775-24.979 16.163-46.53 16.163-39.183 0-61.713-12.082-67.59-36.244-4.245 12.408-10.612 21.55-19.102 27.428-8.49 5.877-20.898 8.816-37.224 8.816-48.325 0-72.488-19.755-72.488-59.264 0-23.184 9.142-39.02 27.428-47.51 18.612-8.816 47.019-13.224 85.223-13.224Zm-19.592 60.244c0 16.979.817 27.918 2.449 32.816 1.959 4.897 5.388 7.346 10.286 7.346 5.224 0 9.959-4.081 14.204-12.244 4.571-8.49 6.857-20.082 6.857-34.775v-45.55h-3.429c-20.244 0-30.367 14.857-30.367 44.57v7.837ZM684.59 637.96V483.678h-26.938v-8.816h26.938v-63.183l91.101-22.53v85.713h63.672v8.816h-63.672v165.058c0 15.346 1.469 26.612 4.408 33.795 3.265 7.184 9.795 10.775 19.591 10.775 9.796 0 18.286-4.897 25.469-14.693 7.51-9.796 12.408-23.183 14.694-40.163l8.326.98c-2.612 22.53-9.796 40.489-21.551 53.876-11.754 13.061-31.183 19.592-58.284 19.592-27.102 0-47.836-5.388-62.203-16.163-14.367-10.775-21.551-30.367-21.551-58.775Zm316.67-300.239c-12.404 0-20.567 4.735-24.485 14.204-3.918 9.143-5.878 24-5.878 44.571v78.366h64.653v8.816h-64.653v215.506h59.753V708H852.859v-8.816h26.938V483.678H851.39v-8.816h28.407v-1.96c0-47.019 8.98-82.61 26.938-106.773 17.959-24.489 48-36.734 90.121-36.734 27.754 0 47.674 5.551 59.754 16.653 12.08 10.775 18.12 23.346 18.12 37.713s-3.75 25.143-11.26 32.326c-7.51 7.184-17.47 10.775-29.88 10.775s-22.04-3.102-28.9-9.306c-6.528-6.53-9.793-13.877-9.793-22.04 0-8.49.98-16.653 2.939-24.489h18.614c6.53-22.204 1.47-33.306-15.19-33.306ZM1153.12 592.9h14.2v-37.713c0-31.02-1.79-51.755-5.38-62.203-3.27-10.776-9.8-16.163-19.59-16.163-5.88 0-11.27 1.632-16.17 4.898-4.57 2.938-6.85 7.183-6.85 12.734 0 5.224.98 10.612 2.93 16.163h12.25c2.61 6.857 3.92 15.183 3.92 24.979 0 9.469-4.08 17.796-12.25 24.979-8.16 6.857-18.45 10.286-30.85 10.286-28.08 0-42.13-13.551-42.13-40.653 0-40.162 34.13-60.243 102.37-60.243 38.86 0 65.63 6.693 80.33 20.081 15.02 13.061 22.53 37.224 22.53 72.488v99.427c0 16.979 4.73 25.469 14.2 25.469 11.1 0 17.63-16.816 19.59-50.448l7.35.49c-1.31 28.734-6.7 48.489-16.17 59.264-9.46 10.775-24.97 16.163-46.53 16.163-39.18 0-61.71-12.082-67.59-36.244-4.24 12.408-10.61 21.55-19.1 27.428-8.49 5.877-20.9 8.816-37.22 8.816-48.33 0-72.49-19.755-72.49-59.264 0-23.184 9.14-39.02 27.43-47.51 18.61-8.816 47.02-13.224 85.22-13.224Zm-19.59 60.244c0 16.979.82 27.918 2.45 32.816 1.96 4.897 5.39 7.346 10.28 7.346 5.23 0 9.96-4.081 14.21-12.244 4.57-8.49 6.85-20.082 6.85-34.775v-45.55h-3.42c-20.25 0-30.37 14.857-30.37 44.57v7.837Zm307.99-174.364c-14.37 0-24.65 7.836-30.86 23.51-6.2 15.673-9.3 41.631-9.3 77.876v25.469c0 32.325 3.59 55.509 10.77 69.549 7.19 14.041 20.41 21.061 39.68 21.061 19.26 0 34.61-6.53 46.04-19.591s18.77-27.918 22.04-44.571l8.81.98c-6.2 28.081-17.63 48.325-34.28 60.733-16.98 12.735-40.33 19.102-70.04 19.102-37.88 0-66.94-10.122-87.18-30.367-20.25-20.571-30.37-50.448-30.37-89.631 0-39.509 11.43-69.876 34.29-91.1 23.18-21.224 55.34-31.836 96.48-31.836 29.06 0 51.27 5.714 66.61 17.142 15.35 11.102 23.02 25.143 23.02 42.122s-3.75 29.387-11.26 37.224c-7.18 7.836-17.31 11.755-30.37 11.755-12.73 0-23.02-3.429-30.85-10.286-7.84-6.857-11.76-16.979-11.76-30.367 0-5.877.82-11.755 2.45-17.632h16.16c2.29-6.531 3.43-12.408 3.43-17.632 0-15.674-7.84-23.51-23.51-23.51Zm228.44 234.118c-42.12 0-73.8-10.775-95.02-32.326-20.9-21.877-31.35-52.081-31.35-90.611 0-38.856 11.76-68.57 35.27-89.141 23.83-20.571 54.04-30.856 90.61-30.856 74.12 0 109.71 37.223 106.77 111.671h-138.12v19.102c0 31.999 4.08 56.162 12.25 72.488 8.16 16.326 22.36 24.489 42.61 24.489 37.87 0 62.69-20.244 74.44-60.733l8.82 1.469c-6.2 23.51-17.47 41.795-33.79 54.856-16 13.061-40.17 19.592-72.49 19.592Zm-31.35-141.059h50.45V547.84c0-26.449-1.63-44.408-4.9-53.877-2.94-9.796-9.14-14.693-18.61-14.693-9.14 0-16 5.224-20.57 15.673-4.25 10.122-6.37 27.754-6.37 52.897v23.999Z"/></svg>

<svg width="1920" height="1080" viewBox="0 0 1920 1080" fill="none" xmlns="http://www.w3.org/2000/svg">
<path d="M140.786 365.149H395.475L400.372 467.025H391.556C379.475 431.76 365.434 407.761 349.435 395.026C333.761 382.292 310.252 375.925 278.905 375.925H265.191V535.105H287.232C302.905 535.105 315.966 529.391 326.415 517.963C336.863 506.534 344.047 490.861 347.965 470.943H355.312V615.92H346.986C341.761 591.431 334.415 573.962 324.945 563.513C315.803 553.064 303.231 547.84 287.232 547.84H265.191V697.225H325.925V708H140.786V697.225H169.683V375.925H140.786V365.149ZM516.016 592.9H530.22V555.187C530.22 524.167 528.424 503.432 524.832 492.984C521.567 482.208 515.036 476.821 505.24 476.821C499.363 476.821 493.975 478.453 489.077 481.719C484.506 484.657 482.22 488.902 482.22 494.453C482.22 499.677 483.2 505.065 485.159 510.616H497.404C500.016 517.473 501.322 525.799 501.322 535.595C501.322 545.064 497.241 553.391 489.077 560.574C480.914 567.431 470.629 570.86 458.221 570.86C430.14 570.86 416.099 557.309 416.099 530.207C416.099 490.045 450.221 469.964 518.465 469.964C557.321 469.964 584.096 476.657 598.79 490.045C613.81 503.106 621.32 527.269 621.32 562.533V661.96C621.32 678.939 626.054 687.429 635.524 687.429C646.626 687.429 653.156 670.613 655.115 636.981L662.462 637.471C661.156 666.205 655.768 685.96 646.299 696.735C636.83 707.51 621.32 712.898 599.769 712.898C560.586 712.898 538.056 700.816 532.179 676.654C527.934 689.062 521.567 698.204 513.077 704.082C504.587 709.959 492.179 712.898 475.853 712.898C427.528 712.898 403.365 693.143 403.365 653.634C403.365 630.45 412.507 614.614 430.793 606.124C449.405 597.308 477.812 592.9 516.016 592.9ZM496.424 653.144C496.424 670.123 497.241 681.062 498.873 685.96C500.832 690.857 504.261 693.306 509.159 693.306C514.383 693.306 519.118 689.225 523.363 681.062C527.934 672.572 530.22 660.98 530.22 646.287V600.737H526.791C506.547 600.737 496.424 615.594 496.424 645.307V653.144ZM684.59 637.96V483.678H657.652V474.862H684.59V411.679L775.691 389.149V474.862H839.363V483.678H775.691V648.736C775.691 664.082 777.16 675.348 780.099 682.531C783.364 689.715 789.894 693.306 799.69 693.306C809.486 693.306 817.976 688.409 825.159 678.613C832.669 668.817 837.567 655.43 839.853 638.45L848.179 639.43C845.567 661.96 838.383 679.919 826.628 693.306C814.874 706.367 795.445 712.898 768.344 712.898C741.242 712.898 720.508 707.51 706.141 696.735C691.774 685.96 684.59 666.368 684.59 637.96ZM1001.26 337.721C988.856 337.721 980.693 342.456 976.775 351.925C972.857 361.068 970.897 375.925 970.897 396.496V474.862H1035.55V483.678H970.897V699.184H1030.65V708H852.859V699.184H879.797V483.678H851.39V474.862H879.797V472.902C879.797 425.883 888.777 390.292 906.735 366.129C924.694 341.64 954.735 329.395 996.856 329.395C1024.61 329.395 1044.53 334.946 1056.61 346.048C1068.69 356.823 1074.73 369.394 1074.73 383.761C1074.73 398.128 1070.98 408.904 1063.47 416.087C1055.96 423.271 1046 426.862 1033.59 426.862C1021.18 426.862 1011.55 423.76 1004.69 417.556C998.162 411.026 994.897 403.679 994.897 395.516C994.897 387.026 995.877 378.863 997.836 371.027H1016.45C1022.98 348.823 1017.92 337.721 1001.26 337.721ZM1153.12 592.9H1167.32V555.187C1167.32 524.167 1165.53 503.432 1161.94 492.984C1158.67 482.208 1152.14 476.821 1142.35 476.821C1136.47 476.821 1131.08 478.453 1126.18 481.719C1121.61 484.657 1119.33 488.902 1119.33 494.453C1119.33 499.677 1120.31 505.065 1122.26 510.616H1134.51C1137.12 517.473 1138.43 525.799 1138.43 535.595C1138.43 545.064 1134.35 553.391 1126.18 560.574C1118.02 567.431 1107.73 570.86 1095.33 570.86C1067.25 570.86 1053.2 557.309 1053.2 530.207C1053.2 490.045 1087.33 469.964 1155.57 469.964C1194.43 469.964 1221.2 476.657 1235.9 490.045C1250.92 503.106 1258.43 527.269 1258.43 562.533V661.96C1258.43 678.939 1263.16 687.429 1272.63 687.429C1283.73 687.429 1290.26 670.613 1292.22 636.981L1299.57 637.471C1298.26 666.205 1292.87 685.96 1283.4 696.735C1273.94 707.51 1258.43 712.898 1236.87 712.898C1197.69 712.898 1175.16 700.816 1169.28 676.654C1165.04 689.062 1158.67 698.204 1150.18 704.082C1141.69 709.959 1129.28 712.898 1112.96 712.898C1064.63 712.898 1040.47 693.143 1040.47 653.634C1040.47 630.45 1049.61 614.614 1067.9 606.124C1086.51 597.308 1114.92 592.9 1153.12 592.9ZM1133.53 653.144C1133.53 670.123 1134.35 681.062 1135.98 685.96C1137.94 690.857 1141.37 693.306 1146.26 693.306C1151.49 693.306 1156.22 689.225 1160.47 681.062C1165.04 672.572 1167.32 660.98 1167.32 646.287V600.737H1163.9C1143.65 600.737 1133.53 615.594 1133.53 645.307V653.144ZM1441.52 478.78C1427.15 478.78 1416.87 486.616 1410.66 502.29C1404.46 517.963 1401.36 543.921 1401.36 580.166V605.635C1401.36 637.96 1404.95 661.144 1412.13 675.184C1419.32 689.225 1432.54 696.245 1451.81 696.245C1471.07 696.245 1486.42 689.715 1497.85 676.654C1509.28 663.593 1516.62 648.736 1519.89 632.083L1528.7 633.063C1522.5 661.144 1511.07 681.388 1494.42 693.796C1477.44 706.531 1454.09 712.898 1424.38 712.898C1386.5 712.898 1357.44 702.776 1337.2 682.531C1316.95 661.96 1306.83 632.083 1306.83 592.9C1306.83 553.391 1318.26 523.024 1341.12 501.8C1364.3 480.576 1396.46 469.964 1437.6 469.964C1466.66 469.964 1488.87 475.678 1504.21 487.106C1519.56 498.208 1527.23 512.249 1527.23 529.228C1527.23 546.207 1523.48 558.615 1515.97 566.452C1508.79 574.288 1498.66 578.207 1485.6 578.207C1472.87 578.207 1462.58 574.778 1454.75 567.921C1446.91 561.064 1442.99 550.942 1442.99 537.554C1442.99 531.677 1443.81 525.799 1445.44 519.922H1461.6C1463.89 513.391 1465.03 507.514 1465.03 502.29C1465.03 486.616 1457.19 478.78 1441.52 478.78ZM1669.96 712.898C1627.84 712.898 1596.16 702.123 1574.94 680.572C1554.04 658.695 1543.59 628.491 1543.59 589.961C1543.59 551.105 1555.35 521.391 1578.86 500.82C1602.69 480.249 1632.9 469.964 1669.47 469.964C1743.59 469.964 1779.18 507.187 1776.24 581.635H1638.12V600.737C1638.12 632.736 1642.2 656.899 1650.37 673.225C1658.53 689.551 1672.73 697.714 1692.98 697.714C1730.85 697.714 1755.67 677.47 1767.42 636.981L1776.24 638.45C1770.04 661.96 1758.77 680.245 1742.45 693.306C1726.45 706.367 1702.28 712.898 1669.96 712.898ZM1638.61 571.839H1689.06V547.84C1689.06 521.391 1687.43 503.432 1684.16 493.963C1681.22 484.167 1675.02 479.27 1665.55 479.27C1656.41 479.27 1649.55 484.494 1644.98 494.943C1640.73 505.065 1638.61 522.697 1638.61 547.84V571.839Z" fill="#3C4043"/>
</svg>
